X: 28
T: MEDLEY: La Sansonette Set
T: La Sansonette [Schottische]
C: C: Dominique Forges / Niall Kenny; S: Various
C: Set Leaders: Olya, Andrey, Vova
Z: Oleg Naumov arr.; NfldWhistler / Jeremy at The Session
N: https://thesession.org/members/26966/sets/92365
R: Schottische
M: 4/4
L: 1/8
Q: 1/2=100
K: Emin
|:"Em"B3B "D"A3G|"D"FAGF "Em"E3B,|"Em"EFGA B2GB|"D"d2^cd B3A|
"Em"B3B "D"A3G|"D"FAGF "C"EDB,D|"C"EFGA B2AG|"D"FAGF "Em"EFGA:||
|:"Em"B2GB cGBc|"Em"B2GB cGBc|"D"F2FB cFBc|"D"F2FB cFBc|
"C"B2GB cGBc|"Am"B2GB cGBc|"D"FcBA "Bm"GAGF|"C"EFGF "D"EFGA:||
T: Trip to Pakistan [Reel]
R: Reel
K: Emin
|:"Em"EGBE G3 B|"D"A3 B AGFG|"Em"EGBE G3 B|"D"AGFG "Em"E4:||
|:"Em"EGBG "Am"c3 A|"G"B3 d "(D)"AGFG|"Em"EGBG "Am"c3 A|"G"BAGB "D"A4:||
|:"Em"FGBF GBGF|"C"EFGE FGFE|"D"DFAD FADF|"B7"AGFG E4:||

